resources/svg/nav-preferences.svg

<svg viewBox="0 0 24 24" xmlns="http://www.w3.org/2000/svg" height="24" width="24"><path d="M13.5 12.5L19.5 12.5" fill="none" stroke="currentColor" stroke-linecap="round" stroke-linejoin="round"></path><path d="M19.5,3.5h-2a2,2,0,0,0-2,2v13a2,2,0,0,0,2,2h2" fill="none" stroke="currentColor" stroke-linecap="round" stroke-linejoin="round"></path><path d="M19.500 3.500 A2.000 2.000 0 1 0 23.500 3.500 A2.000 2.000 0 1 0 19.500 3.500 Z" fill="none" stroke="currentColor" stroke-linecap="round" stroke-linejoin="round"></path><path d="M19.500 12.500 A2.000 2.000 0 1 0 23.500 12.500 A2.000 2.000 0 1 0 19.500 12.500 Z" fill="none" stroke="currentColor" stroke-linecap="round" stroke-linejoin="round"></path><path d="M19.500 20.500 A2.000 2.000 0 1 0 23.500 20.500 A2.000 2.000 0 1 0 19.500 20.500 Z" fill="none" stroke="currentColor" stroke-linecap="round" stroke-linejoin="round"></path><path d="M7.5,23.5l.5-6h2.5V14a5,5,0,0,0-10,0v3.5H3l.5,6Z" fill="none" stroke="currentColor" stroke-linecap="round" stroke-linejoin="round"></path><path d="M2.000 4.000 A3.500 3.500 0 1 0 9.000 4.000 A3.500 3.500 0 1 0 2.000 4.000 Z" fill="none" stroke="currentColor" stroke-linecap="round" stroke-linejoin="round"></path></svg>

<svg xmlns="http://www.w3.org/2000/svg" viewBox="0 0 24 24"><path fill="none" stroke="currentColor" stroke-linecap="round" stroke-linejoin="round" d="M13.5 12.5h6m0-9h-2a2 2 0 0 0-2 2v13a2 2 0 0 0 2 2h2m0-17a2 2 0 1 0 4 0 2 2 0 1 0-4 0Zm0 9a2 2 0 1 0 4 0 2 2 0 1 0-4 0Zm0 8a2 2 0 1 0 4 0 2 2 0 1 0-4 0Zm-12 3 .5-6h2.5V14a5 5 0 0 0-10 0v3.5H3l.5 6ZM2 4a3.5 3.5 0 1 0 7 0 3.5 3.5 0 1 0-7 0Z"/></svg>
